X: 1
T:Sleepy Maggie - 8x32R 3C
O:Trad
R:reel
C:Arr. John Chambers, mods by T. Traub 4-23-04
P:Sleepy Maggie [2X]
M:4/4
L:1/8
K:Db
"Ebm"g2 |: "Bbm"f2Bb fBde | f2Ba "Ab"eAce | "Bbm"f2Bb fBde | "(Db)"f=gaf "Ab"eAce :|
"Bbm"fBdB fBde | fBdB "Ab"eAce | "Bbm"fBdB fBde | "(Db)"f=gaf "Ab"eAce ||
"Bbm"fBdB fBde | fBdB "Ab"eAce | "Bbm"fBbB aBgB | "(Db)"f=gaf "Ab"eAce |]
